images/envelope.svg

<svg height="512" viewBox="0 0 24 24" width="512" xmlns="http://www.w3.org/2000/svg"><path d="m23.954 5.542-8.418 8.418a5.007 5.007 0 0 1 -7.072 0l-8.418-8.418c-.014.158-.046.301-.046.458v12a5.006 5.006 0 0 0 5 5h14a5.006 5.006 0 0 0 5-5v-12c0-.157-.032-.3-.046-.458z"/><path d="m14.122 12.546 9.134-9.135a4.986 4.986 0 0 0 -4.256-2.411h-14a4.986 4.986 0 0 0 -4.256 2.411l9.134 9.135a3.007 3.007 0 0 0 4.244 0z"/></svg>

<?xml version="1.0" encoding="UTF-8"?>
<svg xmlns="http://www.w3.org/2000/svg" id="Filled" viewBox="0 0 24 24" width="512" height="512"><path d="M23.954,5.542,15.536,13.96a5.007,5.007,0,0,1-7.072,0L.046,5.542C.032,5.7,0,5.843,0,6V18a5.006,5.006,0,0,0,5,5H19a5.006,5.006,0,0,0,5-5V6C24,5.843,23.968,5.7,23.954,5.542Z"/><path d="M14.122,12.546l9.134-9.135A4.986,4.986,0,0,0,19,1H5A4.986,4.986,0,0,0,.744,3.411l9.134,9.135A3.007,3.007,0,0,0,14.122,12.546Z"/></svg>
